X: 65
T:Merry Blacksmith
N:page 22
N: hexatonic
N: matches 182
R: Reel
M:4/4
L:1/8
K:D
AB|"D"d2dA BAFA|ABdA BAFA|\
ABde fded|"Em"Beed "D"egfe| d2dA BAFA|
"D"A2FA BAFA| ABde fedB|AFEF D2:|\
fg|"D"a2ag ~f3e|dedA BAFA|
ABde f2ed| "Em"Beed "D"egfe|\
abag fgfe|"D"d3A BAFA|\
ABde "A7"fedB|"D"dFEF D2:|
